X:116
T:Black Nag. (p)1657.PLFD.116
T:Galloping Nag,The. (p)1657.PLFD.116
M:6/4
L:1/4
Q:3/4=80
S:Playford, Dancing Master,3rd Ed.,1657
O:England
H:1657.
Z:Chris Partington.
K:Dm
A |\
d>ed e>de | f>ef efg | a>gf e>dc | d3- d2 :| 
|: d |\
ecA ecA | ecA ecA | afd afd | afd afd | 
ecA ecA | ecA e2 f/g/ | a>gf e>de | d3- d2 :| 
